X: 1
T: Raheen, The
M: 4/4
L: 1/8
R: reel
K: Ador
|:AB|cAAG A2 AB|cAAG AGED| G2 GF GABc|dBGB d2 cd|
cAAG A2 AB|cAAG AGED|GABd defe|dBGB A2:|
|:(3Bcd|eaag a2 ag|edef gedg|edef g2 gf| edef gedg|
eaag a2 ag|edef gedg|edef g2 ge|dBGB A2:|
